!!!OTL-incipit: UM DEINETWEGEN BIN ICH HIER
!!!ARE: Europa, Mitteleuropa, Deutschland, Sachsen
!!!SCT: Z0314
!!!TXL: @@DE
!!!YEM: Copyright 1995, estate of Helmut Schaffrath.
**kern	**text
*ICvox	*
*M6/8	*
*k[f#]	*
*G:	*
!LO:TX:a:t=Sächſiſch.	!
!LO:TX:a:t=Altes Lied.	!
{8dd	Um
=1	=1
4b/	dei-
8a	-net-
4g	-we-
8ee	-gen
=2	=2
4cc	bin
8b	ich
4a}	hier,
{8dd	Herʒ-
=3	=3
4b	-lieb,
8g	ver-
4a	-nimm
8d	mein
=4	=4
(8.gL	Wort,
16a	.
16b	.
16aJ)	.
4g}	.
{8dd	All
=5	=5
4b/	mein
8a	Hoffenung
4g	ſetʒ
8ee	ich
=6	=6
4cc	ʒu
8b	dir,
4a}	dar-
{8dd	-in
=7	=7
4b	treib
8g	ich
4a	kein
8d	Spott.
=8	=8
(8.gL	.
16a	.
16b	.
16aJ)	.
4g}	Laß-
{8d	mich
=9	=9
4a	der
8b/	Treu
4cc	ge-
8b	-nie-
=10	=10
(16aL	.
16g	.
16a	.
16g	.
16f#	.
16eJ)	-ßen
4d}	dein
{8dd	Die-
=11	=11
4b	-ner
8g	will
4a	ich
8d	ſeyn.
=12	=12
(8.gL	.
16a	.
16b	.
16aJ)	.
4g}	Thu
{8d	mir
=13	=13
4a	dein
8b/	Herʒ
4cc	auf-
8b	-ſchlie-
=14	=14
(16aL	.
16g	.
16a	.
16g	.
16f#	.
16eJ)	-ßen,
4d}	ſchleuß
{8dd	mich,
=15	=15
4b	Herʒ-
8g	-lieb,
4a	dar-
8d	-ein.
=16	=16
(8.gL	.
16a	.
16b	.
16aJ)	.
==	==
!!!AGN: Lyrisches Lied, Romanze
!!!ONB: ESAC (Essen Associative Code) Database: ZUCCAL
!!!AMT: compound duple
!!!AIN: vox
!!!EED: Helmut Schaffrath
!!!EEV: 1.0
!!!GTL: IV. Lyrische Lieder.
!!!URL-scan: https://www.digitale-sammlungen.de/de/view/bsb11160571?page=565
!!!ENC: Anna Maria Matuszewska
!!!EEV: 2025/01/31
*-	*-
